X:4
T:Sodger Laddie
T:aka Sailor Laddie
R:jig
C:traditional
O:18th century Scottish
B:Bremner's Collection, 1757
N:Melodic Code 3122 6113
Z:Paul Stewart Cranford (P.S.C.), <http://www.cranfordpub.com>
L:1/8
Q:288
M:6/8
K:G
g|TB>AG GDE|A>BA ABd|(e/f/g)(G G)DE|G>AG B2 G|
cAc BGB|ABA ABd|(e/f/g)(G G)DE|[1G>AG G2:|[2 G2 G G2||
|:e/f/|g>ag gdB|Aaa Ta2 g|def gdB|g(a/g/f/e/) gdB|
(c/B/c/d/e/f/) gdB|aAA ABd|(e/f/g)(G G)DE|G>AG G2:|
